X:1
T:Title
L:1/8
Q:1/4=120
M:4/4
K:Ab
V:1 treble nm="Grand Piano"
V:1
 z2 C2 E2 F2 | G3 A GFFE | F3 G FEED | D3 D F>E D2 | C8 | z2 C2 E2 F2 | G3 A GFFE | F3 G FEED | %8
 D2 FE EDDC | C8 | z2 G2 A2 B2 | c2 cB AG F2 | z2 AG GFFE | F8 | z2 A2 A2 AG | G2 GF F2 FG/F/ | %16
 .E2 z E F2 G2 | G8 | z2 A2 A2 AG | G2 GF F4 | E3 F G2 GF | EF/G/ FE DE/F/ ED/E/ | .D2 z B B2 G2 | %23
 G2 EE E4 | .D2 z D- D E2 F | G4 c4 |] %26

